X: 1
T:The Piper's Lass -- Reel
M:2/4
L:1/16
R:reel
B:Ryan's Mammoth Collection
Z:Contributed by Ray Davies,  ray:davies99.freeserve.co.uk
K:D
vAG"Segno"|:F2AF DFAF|G2BG dGBG|F2AF (DF)Ad|BGFG E2D2|
F2AF DFAF|G2BG dGBG|FGAF DFAc|BGFG E2D2::
Acde f2(fa)|gefd edBd|Acde fdfg|afdf e2d2|
Acde f2(fa)|gefd edBd|Acde fefg|afdf e2d2"Segno":|
